dist/img/miratorg.svg

<svg width="157" height="22" viewBox="0 0 157 22" fill="none" xmlns="http://www.w3.org/2000/svg">
<path fill-rule="evenodd" clip-rule="evenodd" d="M84.8486 3.00859L90.8492 2.77472V21.4557H95.3103V2.77472L101.314 3.00859V0.544922H84.8486V3.00859Z" fill="#C2092A"/>
<path fill-rule="evenodd" clip-rule="evenodd" d="M145.608 0.544922V21.4557H150.073V2.77472L157 3.00859V0.544922H145.608Z" fill="#C2092A"/>
<path fill-rule="evenodd" clip-rule="evenodd" d="M33.0145 15.1187V0.544922H28.5533V21.4557H30.9202L42.1453 6.8851V21.4557H46.6064V0.544922H44.2363L33.0145 15.1187Z" fill="#C2092A"/>
<path fill-rule="evenodd" clip-rule="evenodd" d="M84.8967 8.65035C83.6246 8.74564 82.3616 8.93734 81.1186 9.22382L77.9724 0.544922H73.9122L65.9392 21.4653H68.1553C70.4837 17.0249 76.5613 12.7319 80.4227 11.5786C80.7113 11.4921 80.8204 11.7067 80.5157 11.8989C76.8371 14.0486 73.1777 16.6597 71.5196 19.2675C73.8211 19.0553 76.0339 18.276 77.9596 16.9993C82.3309 14.0743 84.8967 8.66958 84.8967 8.66958V8.65035ZM74.5279 11.8861C73.3023 12.7081 72.2191 13.7242 71.3208 14.8944L74.7749 5.03655H74.9032L76.8275 10.6367C76.0265 10.9878 75.2572 11.4069 74.5279 11.8893V11.8861Z" fill="#C2092A"/>
<path fill-rule="evenodd" clip-rule="evenodd" d="M79.1494 17.415L80.5381 21.4645H85.5445L82.9339 14.2529C81.8554 15.508 80.5767 16.5764 79.1494 17.415Z" fill="#C2092A"/>
<path fill-rule="evenodd" clip-rule="evenodd" d="M112.651 0C106.827 0 102.016 4.2994 102.016 10.9984C102.016 17.4924 106.054 22 112.651 22C118.476 22 123.283 17.4924 123.283 10.9984C123.283 4.2994 119.245 0 112.651 0ZM112.651 20.0842C108.707 20.0842 106.879 16.0154 106.879 10.9984C106.879 5.98136 109.082 1.92224 112.651 1.92224C116.596 1.92224 118.424 5.99097 118.424 11.0048C118.424 16.0186 116.221 20.0842 112.651 20.0842Z" fill="#C2092A"/>
<path fill-rule="evenodd" clip-rule="evenodd" d="M18.9351 0.544922L12.2064 14.5004L5.89796 0.544922H2.60742L0 21.4557H2.48234L4.1661 7.41371L9.96785 20.6739H11.7606L18.3738 6.91073L19.9485 21.4557H24.4129L22.1422 0.544922H18.9351Z" fill="#C2092A"/>
<path fill-rule="evenodd" clip-rule="evenodd" d="M133.418 0.547852H127.08V21.465H131.542V14.2886C132.192 14.3618 132.846 14.3971 133.501 14.3944C138.713 14.3944 141.801 11.2323 141.801 7.42946C141.801 3.1685 138.668 0.547852 133.402 0.547852H133.418ZM132.484 12.4946C132.164 12.4946 131.843 12.4721 131.542 12.4433V2.45727H132.484C135.967 2.45727 137.311 4.63901 137.311 7.42946C137.311 10.2199 135.983 12.4946 132.484 12.4946Z" fill="#C2092A"/>
<path fill-rule="evenodd" clip-rule="evenodd" d="M58.0303 0.547852H51.709V21.465H56.1702V14.2886C56.8207 14.3618 57.475 14.3971 58.1297 14.3944C63.3414 14.3944 66.4299 11.2323 66.4299 7.42946C66.4299 3.1685 63.2965 0.547852 58.0303 0.547852ZM57.1099 12.4946C56.7891 12.4946 56.4684 12.4721 56.1702 12.4433V2.45727H57.1099C60.596 2.45727 61.9398 4.63901 61.9398 7.42946C61.9398 10.2199 60.596 12.4946 57.1099 12.4946Z" fill="#C2092A"/>
</svg>

<svg width="157" height="22" fill="none" xmlns="http://www.w3.org/2000/svg"><path fill-rule="evenodd" clip-rule="evenodd" d="m84.849 3.009 6-.234v18.68h4.461V2.776l6.004.234V.545H84.849v2.464ZM145.608.545v20.91h4.465V2.776l6.927.234V.545h-11.392ZM33.014 15.119V.545h-4.46v20.91h2.366l11.225-14.57v14.57h4.461V.546h-2.37L33.015 15.119ZM84.897 8.65a25.206 25.206 0 0 0-3.778.574L77.972.544h-4.06L65.94 21.466h2.216c2.329-4.44 8.406-8.733 12.268-9.886.288-.087.397.128.093.32-3.679 2.15-7.338 4.76-8.996 7.368A13.977 13.977 0 0 0 77.96 17c4.37-2.925 6.937-8.33 6.937-8.33V8.65Zm-10.37 3.236a13.577 13.577 0 0 0-3.206 3.008l3.454-9.857h.128l1.924 5.6c-.8.35-1.57.77-2.3 1.252v-.003ZM79.15 17.415l1.388 4.05h5.007l-2.611-7.212a15.025 15.025 0 0 1-3.785 3.162ZM112.651 0c-5.824 0-10.635 4.3-10.635 10.998 0 6.494 4.038 11.002 10.635 11.002 5.825 0 10.632-4.508 10.632-11.002C123.283 4.3 119.245 0 112.651 0Zm0 20.084c-3.944 0-5.772-4.069-5.772-9.086s2.203-9.076 5.772-9.076c3.945 0 5.773 4.069 5.773 9.083s-2.203 9.08-5.773 9.08ZM18.935.545 12.206 14.5 5.898.545h-3.29L0 21.455h2.482L4.166 7.415l5.802 13.26h1.793L18.374 6.91l1.575 14.545h4.464L22.143.545h-3.208ZM133.418.548h-6.338v20.917h4.462v-7.176c.65.073 1.304.108 1.959.105 5.212 0 8.3-3.162 8.3-6.965 0-4.26-3.133-6.881-8.399-6.881h.016Zm-.934 11.947c-.32 0-.641-.023-.942-.052V2.457h.942c3.483 0 4.827 2.182 4.827 4.972 0 2.79-1.328 5.066-4.827 5.066ZM58.03.548H51.71v20.917h4.461v-7.176a16.9 16.9 0 0 0 1.96.105c5.211 0 8.3-3.162 8.3-6.965 0-4.26-3.134-6.881-8.4-6.881Zm-.92 11.947c-.32 0-.642-.023-.94-.052V2.457h.94c3.486 0 4.83 2.182 4.83 4.972 0 2.79-1.344 5.066-4.83 5.066Z" fill="#C2092A"/></svg>
